X:1
T:Title
%%score { 1 | 2 }
L:1/8
Q:1/4=100
M:6/8
K:D
V:1 treble nm="Grand Piano"
V:2 bass 
V:1
 F2 F F2 [EG] | [FA]2 [GB] [FA]2 [Fd] | [Ec]2 [CGB] [DFA]2 [A,EG] | F6 | F2 F F2 [EG] | %5
w: Theo~E.~Perkins * * *|||||
 [FA]2 [GB] [FA]2 [Fd] | [Ec]2 [EA] [DB]2 [DB] | [CA]6 | [EG]2 [DF] [CE]2 [CGB] | %9
w: ||||
 [DFA]2 [A,EG] [A,DF]3 | [A,EG]2 [A,DF] [CE]2 [CGB] | [DFA]2 [A,EG] [A,DF]3 | %12
w: |||
 [FA]2 [FA] [Fd]2 [Ac] | [GB]2 [AB] [^Ge]2 [Bd] | c2 A B2 c | [Fd]6 | [Fd]2 [FA] [FA]2 [Ad] | %17
w: |||||
 d2 B B2 d | c2 B A2 G | F6 | [FA]2 [FA] [Fd]2 [Ac] | [GB]2 [AB] [^Ge]2 [Bd] | c2 A B2 c | [Fd]6 |] %24
w: |||||||
V:2
 [D,A,D]2 [D,A,D] [D,A,D]2 [D,A,] | [D,D]2 [D,D] [D,D]2 [D,A,] | [A,,A,]2 A,, A,,2 A,, | [D,A,D]6 | %4
 [D,A,D]2 [D,A,D] [D,A,D]2 [D,A,] | [D,D]2 [D,D] [D,D]2 [D,A,] | [A,,A,]2 [C,A,] [E,^G,]2 [E,G,] | %7
 [A,,A,]6 | [A,,A,]2 [A,,A,] A,2 A, | D,2 D, D,3 | A,,2 A,, A,2 A, | D,2 D, D,3 | %12
 [D,D]2 [D,D] [D,A,]2 [F,D] | [G,D]2 [F,^D] [E,E]2[K:treble] [^G,E] | [A,EA]2 [A,C] [A,CG]2 [A,E] | %15
 [D,A,]6 | [D,A,]2 [D,D] [D,D]2 [F,=C] | [G,B,G]2 [G,DG] [G,DG]2 [G,B,G] | %18
 [A,E]2 [A,CG] [A,DF]2[K:bass] [A,E] | [D,A,D]6 | [D,D]2 [D,D] [D,A,]2 [F,D] | %21
 [G,D]2 [F,^D] [E,E]2[K:treble] [^G,E] | [A,EA]2 [A,C] [A,CG]2 [A,E] | [D,A,]6 |] %24

